X:1
T:Title
%%score { ( 1 4 ) | ( 2 3 ) }
L:1/8
Q:1/4=100
M:6/8
K:A
V:1 treble nm="Grand Piano"
V:4 treble 
V:2 bass 
V:3 bass 
V:1
 [CE]2 [EA] BAB | c3 A3 | B2 B A2 B | c3 e3 | edc [Ec][DB][CA] | [FA]G[A,DF] [DF]2 [CE] | %6
w: U.~C.~Burnap * * * *||||||
 A,-[A,EA]B c2 e | [Ec][DB][CA] [Ec]2 [EB] | [CA]2 [CA] AFG | A3- [EA]3 | B2 B A2 B | [Ec]3 [Ae]3 | %12
w: ||||||
 [A,CE]2 [A,CE] [G,DF]2 [B,DE] | [A,CA]6 |] %14
w: ||
V:2
 z3 .[E,E]3 | A,6 | [E,G,E]2 [E,G,E] [E,F,E]2 [E,G,E] | z3 C3 | .C3[K:bass] z3 | z EF, A,2 A, | %6
 A,,C,[E,G,E] [A,E]2 [A,CE] | [A,,A,]2 [A,,A,] [E,A,]2 [E,G,] | [A,,A,]2 [A,,A,] [D,F,D]2 [D,F,D] | %9
 [A,,E,]3 [C,A,]3 | [E,G,E]2 [E,G,E] [E,F,E]2 [E,G,E] | A,3 C3 | A,,2 A,, E,2 E, | A,,6 |] %14
V:3
 [A,,A,]2 [C,A,] G,F,[E,G,E] | A,,3 C,3 | x6 | [A,E]6 | %4
 [A,E]-[A,B,E][A,E][K:bass] [A,,A,]2 [A,,A,] | .[D,A,]3 z3 | x6 | x6 | x6 | x6 | x6 | A,,6 | x6 | %13
 x6 |] %14
V:4
 x6 | E6 | x6 | x6 | x6 | x6 | .[CE]3 z3 | x6 | x6 | C3 z3 | x6 | x6 | x6 | x6 |] %14

